X: 31278
T: Paddy In London
R: jig
M: 6/8
K: Dmajor
(G|F)DF ABc|ded def|AGF G2A|BGE E2G|
FDF ABc|ded def|AGF BAG|FDD D2:|
|:(g/f/)|eAA Agf|edc d2B|AGF G2A|BGE E2(f/g/)|
agf gfe|ded def|AGF BAG|FDD D2:|
|:g3 ~f3|gfe def|g2e fga|bge e2f|
gfg ~f3|gfe d2A|Bcd edB|1 AFD Def:|2 AFD DAG||

